!!!OTL: 539. Heimkehr.
!!!ARE: Europa, Mitteleuropa, Deutschland
!!!SCT: B0539
!!!TXL: @@DE
!!!YEM: Copyright 1995, estate of Helmut Schaffrath.
**kern	**text
*ICvox	*
*Ivox	*
*clefG2	*
*M4/4	*
*met(c)	*
*k[f#c#]	*
*D:	*
!LO:TX:a:t=Mäßig bewegt.	!
{8.d	Deutſche
16d	.
=1	=1
2f#	Wor-
4d	-te
(>12f#L	hör
12dJ	.
12f#)	ich
=2	=2
2a	wie-
4f#}	-der
{(>12aL	ſei
12f#J	.
12a)	ge-
=3	=3
4.dd	-grüßt
8dd	mit
4cc#	Herʒ
4dd	und
=4	=4
2ee	Hand,
4r}	.
{8.cc#	Land
16cc#	der
=5	=5
4ee	Freu-
4dd	-de,
4b	Land
4dd	der
=6	=6
(4.cc#	Lie-
8dd)	.
4ee}	-der,
{8.cc#	ſchö-
16cc#	-nes
=7	=7
4ee	hei-
4dd	-tres
4b	Va-
8.ff#L	-ter-
16eeJ	.
=8	=8
2cc#	-land!
4r}	.
{8.a	Fröh-
16a	-lich
=9	=9
[2a	kehr'
8.a]	.
16a	ich
(>12aL	nun
12eJ)	.
12a	ʒu-
=10	=10
2ee	-rück,
4r}	.
{8.cc#	fröh-
16cc#	-lich
=11	=11
[2cc#	kehr'
8.cc#]	.
16cc#	ich
(12cc#L	nun
12aJ	.
12cc#)	ʒu-
=12	=12
[2ee	-rück.
4ee]	.
4r}	.
=13	=13
{2ff#	Deutſchland,
4dd	.
4r	.
=14	=14
2dd	Deutſchland,
4b	.
4r}	.
=15	=15
{8.a	Deutſchland
16b	.
8.cc#	du
16dd	mein
4ff#	Troſt,
4ee	mein
=16	=16
2dd	Glück,
4r}	.
{4a	ja
=17	=17
2ff#	Deutſchland,
4dd	.
4r	.
=18	=18
2dd	Deutſchland,
4b	.
4r}	.
=19	=19
{8.a	Deutſchland
16b	.
8.cc#	du
16dd	mein
4ff#	Troſt,
4ee	mein
=20	=20
4dd	Glück,
8r	.
8dd	mein
4dd	Troſt,
4dd	mein
=21	=21
2.ff#;}	Glück!
==	==
!!!AGN: Wander -, Heimat - Lied
!!!GTL: Turnerlieder
!!!ONB: ESAC (Essen Associative Code) Database: BOEHME
!!!AMT: simple quadruple
!!!AIN: vox
!!!EED: Helmut Schaffrath
!!!EEV: 1.0
!!!RDF**kern: > = above
!!Mel. aus den "Singweiſen" v. G. Engelbach. Jn Erk's Turnliederbuch.
!!@@COMMENT:"Gedicht von Hoffmann v. Fallersleben. Gedichtet ʒu Gent 5. Sept. 1839. Ʒuerſt gedr.
!!in "neopolitaniſche Lieder" J. 1840 S. 159. Mit (niederländ. ) Mel. in ſeinem Volksgſgb. 1848"
!!@@END:
!!!Text: H. von Fallersleben
!!!URL-scan: https://archive.org/details/BoehmeVtLieder1895/page/n427/mode/2up
!!!ENC: Anna Maria Matuszewska
!!!EEV: 2024/11/07
*-	*-
